!!!!SEGMENT: pl-kozmzk--mzk-m-346--021_walczynski-franciszek--cantantibus-organis-allegro-moderato.krn
!!!cenid: 18xx:2816
!!!COM: Walczyński, Franciszek
!!!COM-rismID: pe30021989
!!!CDT: ~1852-1937
!!!CNT: Polish
!!!GTL: Cantantibus organis op. 10
!!!OTL: 21. Allegro moderato
!!!OMV: 021
!!!PDT: 1898
!!!AGN: Secular
!!!SMS-siglum: PL-KOZmzk
!!!SMS-shelfmark: mzk/m/346
!!!SMS-shelfwork: 001-021 G
!!!SMS-variant:
!!!SMS-altvar:
!!!NIFC-rismSourceID: 1001099615
!!!NIFC-rismChildID: 1001109267
!!!NIFC-islandoraID: pl-kozmzk:7453
!!!URL-pdf-islandora: https://repozytorium.nifc.pl/islandora/object/pl-kozmzk%3A7453/datastream/PDF/view
!!!URL-scan: https://polish.musicsources.pl/pl/lokalizacje/galeria/druki-muzyczne/7581 @EN{Scan on Polish Music Sources Website} @PL{Skany w portalu Dziedzictwo Muzyki Polskiej w otwartym dostępie}
!!!ONB-nifc:
!!!AIN: 1 organ
!!!key:
**kern	**kern	**dynam
*part1	*part1	*part1
*staff2	*staff1	*
*Iorgan	*Iorgan	*
*I"Organo	*I"Organo	*
*clefF4	*clefG2	*
*k[f#c#]	*k[f#c#]	*
*b:	*b:	*
*M4/4	*M4/4	*
*met(c)	*met(c)	*
=1	=1	=1
*^	*^	*
!LO:TX:b:i:t=Ped.	!	!LO:TX:a:B:t=Allegro moderato.	!	!
(4d/	[1BB	(4b/	4f#\	f
4e/	.	8cc#/L	4g\	.
.	.	8dd/J	.	.
4d/	.	4b/	4f#\	.
4e/	.	8cc#/L	4g\	.
.	.	8dd/J	.	.
=2	=2	=2	=2	=2
4d/	1BB]	4b/	4f#\	.
4c#/	.	8a/L	4e\	.
.	.	8g/J	.	.
2d/)	.	4.f#/	2d\	.
.	.	8g/)	.	.
=3	=3	=3	=3	=3
!	!	!	!	!LO:DY:b=2
(4F#/	(1AA	(4a/	4d\	p
8E/L	.	8g/L	[2.c#\	.
8A/J	.	8f#/J	.	.
4G/	.	4e/	.	.
!	!	!	!	!LO:HP:a
4A/	.	4f#/	.	>
=4	=4	=4	=4	=4
2G/	2AA#X\	2e/	2c#\]	.
4F#/)	4BB\)	4d/),	4d\	]
!	!	!	!	!LO:DY:a
4rBB	4rB	(16e/LL	4r	f
.	.	16f#/	.	.
.	.	16g/	.	.
.	.	16a/JJ	.	.
=5	=5	=5	=5	=5
2rG	2r	4b/	2r	.
.	.	8B/L	.	.
.	.	8c#/J	.	.
4rG	4r	4d/)	4r	.
!	!LO:TX:t=P:problem=drugie p u dołu systemu	!	!	!
[4A/	(4AA\	(4e/	8d\L	p
.	.	.	8c#\J	.
=6	=6	=6	=6	=6
2A/]	2D\),	2f#/)	2d\	.
2r	(4.C#\	2r	2re	.
.	8D\)	.	.	.
*	*	*v	*v	*
=7	=7	=7	=7
(4F# 4D/	([1BB	(>4B/	pp
4G 4E/	.	8c#/L	.
.	.	8d/J	.
4F# 4D/	.	4B/	.
4G 4E/	.	8c#/L	.
.	.	8d/J	.
=8	=8	=8	=8
!!LO:LB:g=original
2B 2F#/	2.BB\]	2d/	.
4F# 4D/)	.	4B/)	<
4r	(4AA\)	4r	[[
=9	=9	=9	=9
*	*	*^	*
(4c#/	([1A)	(4a/	2.e\	f
4d/	.	8b/L	.	.
.	.	8cc#/J	.	.
4c#/	.	4a/	.	.
4d/	.	8b/L	4fn\	.
.	.	8cc#/J	.	.
=10	=10	=10	=10	=10
1c#)	2A\]	2.a/	1e	.
.	4G#X\	.	.	.
.	4Gn\)	4a/)	.	.
=11	=11	=11	=11	=11
!	!	!	!	!LO:DY:a
(4d/	(4F#\	(4dd/	(1a	ff
4c#/	4E\	8ee/L	.	.
.	.	8ff#/J	.	.
4d/	4F#\	4dd/	.	.
8c#/L	8E\L	8ee/L	.	.
8cn/J	8D#X\J	8ff#/J	.	.
=12	=12	=12	=12	=12
[2B/	[2E\	[2gg/	[2g\)	.
8B/])	8E\])	8gg/])	8g\]	.
8rB	8r	(8b/L	(8B\L	ff
4rB	4r	8cc#/	8c#\	.
.	.	8dd/J	8d\J	.
=13	=13	=13	=13	=13
2rB	2r	2ff#^/)	2f#\)	.
8rB	8r	2rg	2rgg	pp
(8B/L	(8BB\L	.	.	.
8c#/	8C#\	.	.	.
8d/J	8D\J	.	.	.
=14	=14	=14	=14	=14
2f#/)	2F#\)	1rg	1rdd	.
8rB	8r	.	.	.
(8B/L	(8BB\L	.	.	pp
8c#/	8C#\	.	.	.
8d/J	8D\J	.	.	>
=15	=15	=15	=15	=15
!!LO:LB:g=original
[1F#)	[1FF#)	4r	4ryy	.
.	.	(4f#/	(4d\	] pp
.	.	4e/	4c#\	.
.	.	4d/	4B\	.
=16	=16	=16	=16	=16
!	!LO:TX:t=P:problem=drugi łuk decrescenda u dołu systemu	!	!	!
1F#]	1FF#;]	4c#/	4A#X\	> >
.	.	8d/L	8B\L	.
.	.	8B/J	8G#X\J	.
.	.	2c#;/)	2A#\)	.
=17	=17	=17	=17	=17
(4d#X/	[1B	(4b/	[1f#	] ] ff
4e/	.	8cc#/L	.	.
.	.	8dd#X/J	.	.
4d#/	.	4b/	.	.
4e/	.	8cc#/L	.	.
.	.	8dd#/J	.	.
=18	=18	=18	=18	=18
4d#X/	1B]	4b/	2f#\]	.
8c#/L	.	8a#X/L	.	.
8e/J	.	8g#X/J	.	.
2d#/)	.	2f#/)	2d#X\	.
=19	=19	=19	=19	=19
(4B/	[1E	(4g/	4e\	pp
4cn/	.	8a/L	4f#\	.
.	.	8b/J	.	.
!	!	!LO:TX:b:i:t=rit.	!	!
4B/	.	4g/	4e\	.
4c/	.	8a/L	4f#\	.
.	.	8b/J	.	.
=20	=20	=20	=20	=20
2B/	2E\]	2g/	2e\	.
2G/)	2EE;\	4e/	4B\	.
.	.	4c#X;/)	4A#X\	.
=21	=21	=21	=21	=21
8r	8r	1rdd	1rg	f
!	!LO:TX:t=P:problem=drugie f u dołu systemu	!	!	!
(8B/L	(8BB\L	.	.	.
8c#/	8C#\	.	.	.
8d/J	8D\J	.	.	.
2f#/)	2F#\)	.	.	.
=22	=22	=22	=22	=22
8r	8r	1rdd	1rg	p
!	!LO:TX:t=P:problem=drugie p u dołu systemu	!	!	!
(8B/L	(8BB\L	.	.	.
8c#/	8C#\	.	.	.
8d/J	8D\J	.	.	.
4F#^/)	4FF#\)	.	.	.
4A#X^/	4AA#X\	.	.	.
*	*	*v	*v	*
=23	=23	=23	=23
!!LO:LB:g=original
(4F# 4D/	1BB	(>4B/	pp
4G 4E/	.	8c#/L	.
.	.	8d/J	.
4F# 4D/	.	4B/	.
4G 4E/)	.	8c#/L	.
.	.	8d/J	.
=24	=24	=24	=24
*	*	*^	*
[2F# [2D/	[2BB\	[2B/	[2B\	.
8F#] 8D/]	8BB\]	8B/L])	8B\]	.
8rB	8r	8c#'/	8r	.
4rB	4r	8d'/	4r	.
.	.	8e'/J	.	.
=25	=25	=25	=25	=25
!	!	!	!	!LO:DY:a
(4A/	[1D	4f#/	[1d	fp
4B-X/	.	8g/L	.	.
.	.	8a/J	.	.
4A/	.	4f#/	.	.
4Bn/	.	8g/L	.	.
.	.	8a/J	.	.
=26	=26	=26	=26	=26
[2A/)	2D\_	[2f#/	2d\_	.
8A/]	8D\]	8f#/]	8d\]	.
8rB	8r	8g'/L	8r	.
4rB	4r	8g#X'/	4r	.
.	.	8a#X'/J	.	.
=27	=27	=27	=27	=27
!	!	!	!	!LO:DY:a
(4d/	[1BB	(4b/	4f#\	f
4e/	.	8cc#/L	4g\	.
.	.	8dd/J	.	.
4d/	.	4b/	4f#\	.
4e/	.	8cc#/L	4g\	.
.	.	8dd/J	.	.
=28	=28	=28	=28	=28
4d/	2.BB\]	4b/	4f#\	.
4c#/	.	8a/L	4e\	.
.	.	8g/J	.	.
2B/)	.	2f#/)	2d\	.
.	4AA\	.	.	.
=29	=29	=29	=29	=29
2d/	2GG\	2b^/	2g\	ff
2e/	4EE\	4b^/	4g\	.
.	4FF#\	4cc#^/	(8b\L	.
.	.	.	8a#X\J)	.
=30	=30	=30	=30	=30
1d#X 1B	1F# 1BB;	1dd#X;	1b 1f#	.
*v	*v	*	*	*
*	*v	*v	*
==	==	==
*-	*-	*-
!!!system-decoration: {(s1,s2)}
!!!RDF**kern: > = above
!!!RDF**kern: < = below
!!!ENC: Kamil Watkowski
!!!END: 2021-08-09
!!!YEC: Copyright 2022 Narodowy Instytut Fryderyka Chopina (https://polishscores.org)
!!!YEM: License CC-BY-4.0 (https://creativecommons.org/licenses/by/4.0)
